images/icons/links/github.svg

<svg width="30" height="30" fill="none" xmlns="http://www.w3.org/2000/svg"><circle cx="15" cy="15" r="15" fill="#fff"/><path fill-rule="evenodd" clip-rule="evenodd" d="M15 3C8.37 3 3 8.37 3 15c0 5.31 3.435 9.795 8.205 11.385.6.105.825-.255.825-.57 0-.285-.015-1.23-.015-2.235-3.015.555-3.795-.735-4.035-1.41-.135-.345-.72-1.41-1.23-1.695-.42-.225-1.02-.78-.015-.795.945-.015 1.62.87 1.845 1.23 1.08 1.815 2.805 1.305 3.495.99.105-.78.42-1.305.765-1.605-2.67-.3-5.46-1.335-5.46-5.925 0-1.305.465-2.385 1.23-3.225-.12-.3-.54-1.53.12-3.18 0 0 1.005-.315 3.3 1.23.96-.27 1.98-.405 3-.405s2.04.135 3 .405c2.295-1.56 3.3-1.23 3.3-1.23.66 1.65.24 2.88.12 3.18.765.84 1.23 1.905 1.23 3.225 0 4.605-2.805 5.625-5.475 5.925.435.375.81 1.095.81 2.22 0 1.605-.015 2.895-.015 3.3 0 .315.225.69.825.57A12.02 12.02 0 0027 15c0-6.63-5.37-12-12-12z" fill="#000"/></svg>

<svg width="30" height="30" viewBox="0 0 30 30" fill="none" xmlns="http://www.w3.org/2000/svg">
<circle cx="15" cy="15" r="15" fill="white"/>
<path fill-rule="evenodd" clip-rule="evenodd" d="M15 3C8.37 3 3 8.37 3 15C3 20.31 6.435 24.795 11.205 26.385C11.805 26.49 12.03 26.13 12.03 25.815C12.03 25.53 12.015 24.585 12.015 23.58C9 24.135 8.22 22.845 7.98 22.17C7.845 21.825 7.26 20.76 6.75 20.475C6.33 20.25 5.73 19.695 6.735 19.68C7.68 19.665 8.355 20.55 8.58 20.91C9.66 22.725 11.385 22.215 12.075 21.9C12.18 21.12 12.495 20.595 12.84 20.295C10.17 19.995 7.38 18.96 7.38 14.37C7.38 13.065 7.845 11.985 8.61 11.145C8.49 10.845 8.07 9.615 8.73 7.965C8.73 7.965 9.735 7.65 12.03 9.195C12.99 8.925 14.01 8.79 15.03 8.79C16.05 8.79 17.07 8.925 18.03 9.195C20.325 7.635 21.33 7.965 21.33 7.965C21.99 9.615 21.57 10.845 21.45 11.145C22.215 11.985 22.68 13.05 22.68 14.37C22.68 18.975 19.875 19.995 17.205 20.295C17.64 20.67 18.015 21.39 18.015 22.515C18.015 24.12 18 25.41 18 25.815C18 26.13 18.225 26.505 18.825 26.385C21.2072 25.5808 23.2773 24.0498 24.7438 22.0074C26.2103 19.9651 26.9994 17.5143 27 15C27 8.37 21.63 3 15 3Z" fill="black"/>
</svg>
